icons/night/svelte.svg

<svg width="16" height="16" viewBox="0 0 16 16" fill="none" xmlns="http://www.w3.org/2000/svg">
<path d="M9.313 3.36001H9.423C9.77617 3.37449 10.1208 3.47272 10.4286 3.64658C10.7363 3.82045 10.9983 4.06498 11.193 4.36001C11.4394 4.70041 11.5724 5.10978 11.573 5.53001C11.583 5.64001 11.583 5.75002 11.573 5.86001C11.5556 5.95145 11.5322 6.04164 11.503 6.13001L11.453 6.29001L11.313 6.19001C10.9788 5.94786 10.6072 5.76207 10.213 5.64001H10.113V5.54001C10.1262 5.3852 10.0875 5.23041 10.003 5.10001C9.94099 5.01143 9.85874 4.93891 9.76309 4.88847C9.66743 4.83804 9.56113 4.81114 9.453 4.81001H9.273L9.103 4.88001L6.303 6.69001C6.22732 6.72627 6.16094 6.77936 6.10894 6.84523C6.05694 6.9111 6.0207 6.98799 6.003 7.07001C5.97885 7.20527 5.99887 7.34472 6.0601 7.46772C6.12133 7.59072 6.22052 7.69075 6.343 7.75301C6.43862 7.8033 6.54497 7.82972 6.653 7.83001H6.833L7.003 7.73001L8.103 7.05001C8.43824 6.83886 8.82681 6.72784 9.223 6.73001C9.57365 6.73651 9.91776 6.82599 10.2272 6.99112C10.5366 7.15624 10.8024 7.39232 11.003 7.68001C11.164 7.90288 11.2788 8.15572 11.3407 8.42363C11.4025 8.69154 11.4101 8.96912 11.363 9.24001C11.316 9.50384 11.2144 9.75492 11.0645 9.97709C10.9147 10.1993 10.72 10.3876 10.493 10.53L7.693 12.31C7.516 12.42 7.324 12.504 7.123 12.56C6.9408 12.6118 6.75242 12.6387 6.563 12.64C6.2011 12.6343 5.84608 12.5402 5.52887 12.3659C5.21165 12.1916 4.94186 11.9424 4.743 11.64C4.49855 11.3024 4.36569 10.8968 4.363 10.48V10.4C4.35361 10.2936 4.35361 10.1865 4.363 10.08L4.423 9.82001V9.66001L4.563 9.76002C4.897 10.002 5.269 10.188 5.663 10.31H5.763V10.41C5.77562 10.5985 5.86181 10.7745 6.003 10.9C6.06709 10.9889 6.15116 11.0614 6.24844 11.1118C6.34571 11.1621 6.45346 11.1889 6.563 11.19C6.616 11.2 6.67 11.2 6.723 11.19L6.903 11.12L9.663 9.32001C9.73184 9.2788 9.79138 9.22374 9.83786 9.15833C9.88433 9.09293 9.91673 9.01859 9.933 8.94001C9.95723 8.80487 9.93736 8.66551 9.87632 8.54252C9.81528 8.41953 9.7163 8.31944 9.594 8.25701C9.49839 8.20673 9.39203 8.18031 9.284 8.18002H9.104L8.934 8.25001L7.864 9.00001C7.68918 9.11212 7.49636 9.19331 7.294 9.24001C7.11461 9.28779 6.92964 9.31133 6.744 9.31002C6.3804 9.30595 6.02336 9.21263 5.70427 9.03827C5.38518 8.8639 5.11381 8.61382 4.914 8.31002C4.75767 8.08696 4.64712 7.83512 4.58876 7.56907C4.5304 7.30301 4.52539 7.02802 4.574 6.76002C4.62096 6.49619 4.72263 6.24511 4.87247 6.02294C5.02231 5.80076 5.21699 5.61242 5.444 5.47001L8.244 3.69001C8.422 3.58001 8.614 3.49202 8.814 3.43001C8.97816 3.39134 9.14554 3.36791 9.314 3.36001H9.313ZM9.293 2.00001C8.63816 1.99483 7.99576 2.17887 7.443 2.53001L4.643 4.32001C4.26681 4.55634 3.94431 4.86887 3.69628 5.23746C3.44826 5.60605 3.28022 6.02251 3.203 6.46001C3.0638 7.19984 3.18016 7.96501 3.533 8.63001C3.291 8.99213 3.12749 9.4009 3.053 9.83001C2.97302 10.277 2.98313 10.7355 3.08273 11.1785C3.18233 11.6216 3.36941 12.0403 3.633 12.41C3.97707 12.8998 4.43364 13.2998 4.96437 13.5764C5.4951 13.8531 6.08449 13.9984 6.683 14C7.33784 14.0052 7.98024 13.8212 8.533 13.47L11.333 11.69C11.7107 11.4531 12.0342 11.1391 12.2824 10.7686C12.5305 10.3982 12.6977 9.9795 12.773 9.54001C12.9115 8.80343 12.7951 8.04165 12.443 7.38001C12.681 7.01602 12.844 6.60801 12.923 6.18001C13.0055 5.73149 12.9967 5.27092 12.897 4.82589C12.7974 4.38086 12.6089 3.96052 12.343 3.59001C11.9989 3.10028 11.5424 2.70027 11.0116 2.42359C10.4809 2.14692 9.89152 2.00166 9.293 2.00001Z" fill="#DB4B4B"/>
</svg>

<svg xmlns="http://www.w3.org/2000/svg" fill="none" viewBox="0 0 16 16"><path
    fill="#db4b4b"
    d="M9.313 3.36h.11a2.23 2.23 0 0 1 1.77 1 2 2 0 0 1 .38 1.17c.01.11.01.22 0 .33a2.13 2.13 0 0 1-.07.27l-.05.16-.14-.1a3.78 3.78 0 0 0-1.1-.55h-.1v-.1a.7.7 0 0 0-.11-.44.68.68 0 0 0-.55-.29h-.18l-.17.07-2.8 1.81a.55.55 0 0 0-.3.38.64.64 0 0 0 .34.683.67.67 0 0 0 .31.077h.18l.17-.1 1.1-.68a2.08 2.08 0 0 1 1.12-.32 2.22 2.22 0 0 1 1.78.95 2.061 2.061 0 0 1 .36 1.56 1.92 1.92 0 0 1-.87 1.29l-2.8 1.78c-.177.11-.369.194-.57.25a2.1 2.1 0 0 1-.56.08 2.22 2.22 0 0 1-1.82-1 2 2 0 0 1-.38-1.16v-.08a1.82 1.82 0 0 1 0-.32l.06-.26v-.16l.14.1c.334.242.706.428 1.1.55h.1v.1a.72.72 0 0 0 .24.49.699.699 0 0 0 .56.29c.053.01.107.01.16 0l.18-.07 2.76-1.8a.58.58 0 0 0 .27-.38.64.64 0 0 0-.339-.683.67.67 0 0 0-.31-.077h-.18l-.17.07-1.07.75a1.81 1.81 0 0 1-.57.24 2.08 2.08 0 0 1-.55.07 2.22 2.22 0 0 1-1.83-1 2.06 2.06 0 0 1-.34-1.55 1.92 1.92 0 0 1 .87-1.29l2.8-1.78c.178-.11.37-.198.57-.26a2.74 2.74 0 0 1 .5-.07ZM9.293 2a3.4 3.4 0 0 0-1.85.53l-2.8 1.79a3.18 3.18 0 0 0-1.44 2.14 3.32 3.32 0 0 0 .33 2.17 3.12 3.12 0 0 0-.48 1.2 3.41 3.41 0 0 0 .58 2.58A3.74 3.74 0 0 0 6.683 14a3.4 3.4 0 0 0 1.85-.53l2.8-1.78a3.17 3.17 0 0 0 1.44-2.15 3.3 3.3 0 0 0-.33-2.16c.238-.364.401-.772.48-1.2a3.39 3.39 0 0 0-.58-2.59A3.74 3.74 0 0 0 9.293 2Z"
  /></svg>
